X:1
T:G Major                        Jacob Kimball, 1793
T:Isaac Watts, 1719 (Psalm 84, Part 4)               66. 66. 44. 44.                               
T:Ashby
T:Transcribed from Kimball's Rural Harmony, 1793.
%%score [ 1 2 3 4 ]
L:1/8
Q:1/4=100
M:2/2
K:G
V:1 treble nm="Tr." snm="Tr."
V:2 treble nm="C." snm="C."
V:3 treble-8 nm="T." snm="T."
V:4 bass nm="B." snm="B."
V:1
 B2 | G2 F2 G2 B2 | d4 z2 d2 | d2 (3BcA G2 F2 | G4 z2 B2 | G2 F2 (3GAB A2 | A4 z2 B2 | %7
w: 1.~To|spend one sa- cred|day Where|God and * * saints a-|bide, Af-|fords di- vi- * * ner|joy Than|
 cd (3cBA G2 F2 | G4 z2 B2 | B2 B2 B2 cB | A2{d} c2 d4 | z2 B2 B2 (3cBA | G2 (3cBA G2 F2 | G6 |] %14
w: thou- * sand * * days be|side: Where|God re- sorts I *|love it more|To keep the * *|door Than * * shine in|courts.|
V:2
 D2 | E2 D2 D2 DG | F4 z2 F2 | GD E2 D2 D2 | D4 z2 D2 | E2 D2 D2 A>G | F4 z2 G2 | G2 (3EFG D2 D2 | %8
w: 2.~God|is our sun and *|shield, Our|light * and our de-|fense; With|gifts his hands are *|filled, We|draw our * * bles- sings|
 D4 z2 G2 | G2 G2 G2 D2 | A2 G2 F4 | z2 G2 G2 (3EFG | D2 (3EFG D2 D2 | D6 |] %14
w: thence: He|shall be- stow on|Ja- cob's race|Pe- cu- liar * *|grace And * * glo- ry|too.|
V:3
 G2 | c2 A2 B2 G2 | A4 z2 A2 | BG (3dec B2 A2 | G4 z2 G2 | c2 A2 B2{d} c2 | d4 z2 d2 | %7
w: 3.~The|Lord his peo- ple|loves, His|hand * no * * good with-|holds From|those his heart ap-|proves, From|
 ed (3gde B2 A2 | G4 z2 d2 | d2 d2 d2 Ag | f2 Te2 d4 | z2 d2 d2 (3edc | B2 (3edc B2 A2 | G6 |] %14
w: pure * and * * pi- ous|souls: Thrice|hap- py he, O *|God of hosts,|Whose spi- rit * *|trusts a- * * lone in|thee.|
V:4
 G,2 | C,2 D,2 G,2 G,,2 | D,4 z2 D,2 | G,2 C,2 D,2 D,2 | G,4 z2 G,2 | C,2 D,2 G,2 A,2 | %6
 D,4 z2 G,2 | CB, C2 D2 D,2 | [G,,G,]4 z2 G,2 | G,2 G,2 G,2 G,2 | A,2 A,2 D,4 | z2 G,2 G,2 C,2 | %12
"^____________________________________________________________\nEdited by B. C. Johnston, 2017\n   1. Measures 12-13, Counter: grace-notes following converted to triplets, as in Treble and Tenor." G,2 C,2 D,2 D,2 | %13
 G,,6 |] %14

